src/assets/medium.svg

<svg height="195" viewBox="0 0 195 195" width="195" xmlns="http://www.w3.org/2000/svg"><g fill="none"><path d="m0 0h195v195h-195z" fill="#12100e"/><path d="m46.5340803 65.2157554c.1627575-1.6080982-.4504803-3.1975244-1.6512605-4.2798354l-12.2315593-14.7348618v-2.2010582h37.9789916l29.3557423 64.380952 25.8085906-64.380952h36.205415v2.2010582l-10.457983 10.0270429c-.901593.6872466-1.348829 1.8167851-1.161998 2.9347443v73.6743096c-.186831 1.117959.260405 2.247497 1.161998 2.934744l10.213352 10.027043v2.201058h-51.372549v-2.201058l10.580299-10.271605c1.039682-1.039389 1.039682-1.345091 1.039682-2.934744v-59.5508528l-29.4169 74.7136978h-3.9752567l-34.2483661-74.7136978v50.0740738c-.2855504 2.105255.4136417 4.224786 1.8958917 5.747208l13.7605042 16.691358v2.201058h-39.0186741v-2.201058l13.7605042-16.691358c1.4714579-1.524946 2.1298796-3.658537 1.7735761-5.747208z" fill="#fff"/></g></svg>

<?xml version="1.0" encoding="UTF-8" standalone="no"?>
<svg width="195px" height="195px" viewBox="0 0 195 195" version="1.1" xmlns="http://www.w3.org/2000/svg" xmlns:xlink="http://www.w3.org/1999/xlink">
    <!-- Generator: Sketch 46.2 (44496) - http://www.bohemiancoding.com/sketch -->
    <title>Monogram</title>
    <desc>Created with Sketch.</desc>
    <defs></defs>
    <g id="Page-1" stroke="none" stroke-width="1" fill="none" fill-rule="evenodd">
        <g id="Monogram" fill-rule="nonzero">
            <rect id="Rectangle-path" fill="#12100E" x="0" y="0" width="195" height="195"></rect>
            <path d="M46.5340803,65.2157554 C46.6968378,63.6076572 46.0836,62.018231 44.8828198,60.93592 L32.6512605,46.2010582 L32.6512605,44 L70.6302521,44 L99.9859944,108.380952 L125.794585,44 L162,44 L162,46.2010582 L151.542017,56.2281011 C150.640424,56.9153477 150.193188,58.0448862 150.380019,59.1628454 L150.380019,132.837155 C150.193188,133.955114 150.640424,135.084652 151.542017,135.771899 L161.755369,145.798942 L161.755369,148 L110.38282,148 L110.38282,145.798942 L120.963119,135.527337 C122.002801,134.487948 122.002801,134.182246 122.002801,132.592593 L122.002801,73.0417402 L92.585901,147.755438 L88.6106443,147.755438 L54.3622782,73.0417402 L54.3622782,123.115814 C54.0767278,125.221069 54.7759199,127.3406 56.2581699,128.863022 L70.0186741,145.55438 L70.0186741,147.755438 L31,147.755438 L31,145.55438 L44.7605042,128.863022 C46.2319621,127.338076 46.8903838,125.204485 46.5340803,123.115814 L46.5340803,65.2157554 Z" id="Shape" fill="#FFFFFF"></path>
        </g>
    </g>
</svg>
